packages/dialtone-icons/src/svg/icons/time/calendar-range.svg

<svg width="12" height="12" viewBox="0 0 12 12" fill="none" xmlns="http://www.w3.org/2000/svg">
<path fill-rule="evenodd" clip-rule="evenodd" d="M4 0.5C4.27614 0.5 4.5 0.723858 4.5 1V1.5H7.5V1C7.5 0.723858 7.72386 0.5 8 0.5C8.27614 0.5 8.5 0.723858 8.5 1V1.5H9.5C10.3284 1.5 11 2.17157 11 3V10C11 10.8284 10.3284 11.5 9.5 11.5H2.5C1.67157 11.5 1 10.8284 1 10V3C1 2.17157 1.67157 1.5 2.5 1.5H3.5V1C3.5 0.723858 3.72386 0.5 4 0.5ZM3.5 2.5H2.5C2.22386 2.5 2 2.72386 2 3V4.5H10V3C10 2.72386 9.77614 2.5 9.5 2.5H8.5V3C8.5 3.27614 8.27614 3.5 8 3.5C7.72386 3.5 7.5 3.27614 7.5 3V2.5H4.5V3C4.5 3.27614 4.27614 3.5 4 3.5C3.72386 3.5 3.5 3.27614 3.5 3V2.5ZM10 5.5H2V10C2 10.2761 2.22386 10.5 2.5 10.5H9.5C9.77614 10.5 10 10.2761 10 10V5.5ZM3 7C3 6.72386 3.22386 6.5 3.5 6.5H3.505C3.78114 6.5 4.005 6.72386 4.005 7C4.005 7.27614 3.78114 7.5 3.505 7.5H3.5C3.22386 7.5 3 7.27614 3 7ZM5 7C5 6.72386 5.22386 6.5 5.5 6.5H8.5C8.77614 6.5 9 6.72386 9 7C9 7.27614 8.77614 7.5 8.5 7.5H5.5C5.22386 7.5 5 7.27614 5 7ZM3 9C3 8.72386 3.22386 8.5 3.5 8.5H6.5C6.77614 8.5 7 8.72386 7 9C7 9.27614 6.77614 9.5 6.5 9.5H3.5C3.22386 9.5 3 9.27614 3 9ZM8 9C8 8.72386 8.22386 8.5 8.5 8.5H8.505C8.78114 8.5 9.005 8.72386 9.005 9C9.005 9.27614 8.78114 9.5 8.505 9.5H8.5C8.22386 9.5 8 9.27614 8 9Z" fill="black"/>
</svg>

<svg xmlns="http://www.w3.org/2000/svg" width="12" height="12" fill="none" viewBox="0 0 12 12">
  <path fill="#000" fill-rule="evenodd" d="M2.5 2.5A.5.5 0 0 0 2 3v7a.5.5 0 0 0 .5.5h7a.5.5 0 0 0 .5-.5V3a.5.5 0 0 0-.5-.5h-7ZM1 3a1.5 1.5 0 0 1 1.5-1.5h7A1.5 1.5 0 0 1 11 3v7a1.5 1.5 0 0 1-1.5 1.5h-7A1.5 1.5 0 0 1 1 10V3Z" clip-rule="evenodd"/>
  <path fill="#000" fill-rule="evenodd" d="M8 .5a.5.5 0 0 1 .5.5v2a.5.5 0 0 1-1 0V1A.5.5 0 0 1 8 .5Zm-4 0a.5.5 0 0 1 .5.5v2a.5.5 0 0 1-1 0V1A.5.5 0 0 1 4 .5ZM1 5a.5.5 0 0 1 .5-.5h9a.5.5 0 0 1 0 1h-9A.5.5 0 0 1 1 5Zm4 2a.5.5 0 0 1 .5-.5h3a.5.5 0 0 1 0 1h-3A.5.5 0 0 1 5 7ZM3 9a.5.5 0 0 1 .5-.5h3a.5.5 0 0 1 0 1h-3A.5.5 0 0 1 3 9Zm0-2a.5.5 0 0 1 .5-.5h.005a.5.5 0 0 1 0 1H3.5A.5.5 0 0 1 3 7Zm5 2a.5.5 0 0 1 .5-.5h.005a.5.5 0 0 1 0 1H8.5A.5.5 0 0 1 8 9Z" clip-rule="evenodd"/>
</svg>
